X:174
T:Goin' Down the River
C:Arr. Mike Compton
N:
R:bluegrass
L:1/8
Q:1/4=230
M:4/4
K:A
z8 | "A"ce ee e2 ce | ef ec B2 Ac | ef ec BB AF | "E"EF Ac "A"B2 AA | ce ee e2 ce | 
ef ec BB Ac | ef ec BB AF | "E"[AE][AF] Ac "A"BB [e2A2] | "A"[eB]c cc [ec]c cB | 
[eA]B cA [eB]B Ac | ef ec BB [eA]F | "E"EF cB "A"B2 [e2A2] | [eB]c cc [e2c2] cB | 
[eA]B cA [eB]B Ac | ef ec BB [eA]F | "E"EF Ac "A"B2 [e2A2] | "A"ce ee e2 c2 | 
ef ec B[eA] Ac | ef ec BB [eA]F | "E"EF Ac "A"BB [e2A2] | ce ee e2 ce | ef ec BB [eA]c | 
ef ec BB [eA]F | "E"EF Ac "A"B2 [e2A2] | "A"[eB]c cc [e2c2] cB | AB c[eA] [eB]B Ac | 
ef ec BB [eA]F | "E"EF Ac "A"B2 [e2A2] | [eB]c cc [e2c2] cB | [eA]B cA B2 [eA][ec] | 
ef ec B2 [eA][eF] | "E"EF Ac "A"B2 [e2A2] | 


